Numix-Light/16/status/indicator-keyboard-Sk-1.svg

<?xml version="1.0" encoding="UTF-8" standalone="no"?>
<svg
   xmlns:dc="http://purl.org/dc/elements/1.1/"
   xmlns:cc="http://creativecommons.org/ns#"
   xmlns:rdf="http://www.w3.org/1999/02/22-rdf-syntax-ns#"
   xmlns:svg="http://www.w3.org/2000/svg"
   xmlns="http://www.w3.org/2000/svg"
   xmlns:sodipodi="http://sodipodi.sourceforge.net/DTD/sodipodi-0.dtd"
   xmlns:inkscape="http://www.inkscape.org/namespaces/inkscape"
   viewBox="0 0 16 16"
   id="svg2"
   version="1.1"
   inkscape:version="0.91 r13725"
   sodipodi:docname="indicator-keyboard-Sk-1.svg">
  <metadata
     id="metadata14">
    <rdf:RDF>
      <cc:Work
         rdf:about="">
        <dc:format>image/svg+xml</dc:format>
        <dc:type
           rdf:resource="http://purl.org/dc/dcmitype/StillImage" />
      </cc:Work>
    </rdf:RDF>
  </metadata>
  <defs
     id="defs12" />
  <sodipodi:namedview
     pagecolor="#ffffff"
     bordercolor="#666666"
     borderopacity="1"
     objecttolerance="10"
     gridtolerance="10"
     guidetolerance="10"
     inkscape:pageopacity="0"
     inkscape:pageshadow="2"
     inkscape:window-width="640"
     inkscape:window-height="480"
     id="namedview10"
     showgrid="false"
     inkscape:zoom="14.75"
     inkscape:cx="8"
     inkscape:cy="8"
     inkscape:window-x="65"
     inkscape:window-y="24"
     inkscape:window-maximized="0"
     inkscape:current-layer="svg2" />
  <path
     style="fill:#353535;fill-opacity:1"
     d="M 1.5996094 0 C 0.71320937 2.9605947e-16 0 0.71320937 0 1.5996094 L 0 14.400391 C 2.9605947e-16 15.286791 0.71320937 16 1.5996094 16 L 14.400391 16 C 15.286791 16 16 15.286791 16 14.400391 L 16 1.5996094 C 16 0.71320937 15.286791 0 14.400391 0 L 1.5996094 0 z M 8.2792969 4.1113281 L 8.2792969 8.5390625 C 8.4292969 8.3950625 8.5972031 8.2309219 8.7832031 8.0449219 C 8.9692031 7.8589219 9.1557969 7.6705156 9.3417969 7.4785156 C 9.5337969 7.2865156 9.7128594 7.0999219 9.8808594 6.9199219 C 10.048859 6.7399219 10.1925 6.5813594 10.3125 6.4433594 L 11.015625 6.4433594 C 10.877625 6.5873594 10.720875 6.7496875 10.546875 6.9296875 C 10.372875 7.1096875 10.190047 7.2980938 9.9980469 7.4960938 C 9.8120469 7.6880937 9.6254531 7.8765 9.4394531 8.0625 L 8.9355469 8.5664062 C 9.1215469 8.6924063 9.3192969 8.8547344 9.5292969 9.0527344 C 9.7452969 9.2507344 9.9561565 9.4671719 10.160156 9.7011719 C 10.370156 9.9291721 10.564141 10.166109 10.744141 10.412109 C 10.930141 10.652109 11.086891 10.879703 11.212891 11.095703 L 10.519531 11.095703 C 10.375531 10.855703 10.211391 10.622531 10.025391 10.394531 C 9.8453909 10.160531 9.6532187 9.9403283 9.4492188 9.7363281 C 9.2512187 9.5323281 9.0497031 9.3476875 8.8457031 9.1796875 C 8.6477031 9.0116875 8.4592969 8.8698594 8.2792969 8.7558594 L 8.2792969 11.095703 L 7.6933594 11.095703 L 7.6933594 4.2207031 L 8.2792969 4.1113281 z M 4.7460938 4.7246094 C 4.9140937 4.7246094 5.0782344 4.7357656 5.2402344 4.7597656 C 5.4022344 4.7837656 5.5534063 4.817375 5.6914062 4.859375 C 5.8354062 4.895375 5.964125 4.936375 6.078125 4.984375 C 6.198125 5.032375 6.297 5.0846719 6.375 5.1386719 L 6.1582031 5.6503906 C 5.9842031 5.5303906 5.7715312 5.4352813 5.5195312 5.3632812 C 5.2735313 5.2912813 5.00675 5.2558594 4.71875 5.2558594 C 4.52075 5.2558594 4.3379219 5.2763594 4.1699219 5.3183594 C 4.0079219 5.3543594 3.8660937 5.4178125 3.7460938 5.5078125 C 3.6260937 5.5918125 3.5309844 5.6980781 3.4589844 5.8300781 C 3.3929844 5.9620781 3.359375 6.1225938 3.359375 6.3085938 C 3.359375 6.5005938 3.3947969 6.6629219 3.4667969 6.7949219 C 3.5387969 6.9269219 3.639625 7.0407187 3.765625 7.1367188 C 3.897625 7.2327187 4.0506094 7.3184844 4.2246094 7.3964844 C 4.3986094 7.4744844 4.5870156 7.556625 4.7910156 7.640625 C 5.0370156 7.742625 5.268375 7.8433125 5.484375 7.9453125 C 5.706375 8.0473125 5.8985469 8.1686406 6.0605469 8.3066406 C 6.2225469 8.4446406 6.3512656 8.6125469 6.4472656 8.8105469 C 6.5432656 9.0085469 6.5898438 9.2510625 6.5898438 9.5390625 C 6.5898438 10.103063 6.3920937 10.526594 5.9960938 10.808594 C 5.6060937 11.090594 5.0762969 11.230469 4.4042969 11.230469 C 4.1642969 11.230469 3.9440938 11.215547 3.7460938 11.185547 C 3.5480938 11.155547 3.3708438 11.120125 3.2148438 11.078125 C 3.0588437 11.030125 2.9283125 10.981594 2.8203125 10.933594 C 2.7123125 10.885594 2.6283594 10.844594 2.5683594 10.808594 L 2.765625 10.277344 C 2.825625 10.313344 2.9058125 10.354344 3.0078125 10.402344 C 3.1098125 10.450344 3.2311406 10.498875 3.3691406 10.546875 C 3.5071406 10.588875 3.6619375 10.624297 3.8359375 10.654297 C 4.0099375 10.684297 4.2021094 10.699219 4.4121094 10.699219 C 4.8981094 10.699219 5.276875 10.613453 5.546875 10.439453 C 5.816875 10.259453 5.9511719 9.970219 5.9511719 9.5742188 C 5.9511719 9.3462187 5.9064062 9.1578125 5.8164062 9.0078125 C 5.7324062 8.8518125 5.6186094 8.7230938 5.4746094 8.6210938 C 5.3306094 8.5130937 5.1664687 8.4235625 4.9804688 8.3515625 C 4.7944687 8.2735625 4.5985313 8.1914219 4.3945312 8.1074219 C 4.1365313 8.0054219 3.9051719 7.9009687 3.7011719 7.7929688 C 3.4971719 7.6849688 3.3236875 7.5655937 3.1796875 7.4335938 C 3.0356875 7.2955937 2.9256563 7.1388438 2.8476562 6.9648438 C 2.7756562 6.7908437 2.7382812 6.5875156 2.7382812 6.3535156 C 2.7382812 5.8195156 2.9155312 5.4146719 3.2695312 5.1386719 C 3.6235312 4.8626719 4.1160938 4.7246094 4.7460938 4.7246094 z M 13.164062 8.8417969 L 13.431641 8.8417969 L 13.431641 12.896484 L 13.052734 12.896484 L 13.052734 9.421875 C 13.009834 9.468675 12.953013 9.5157063 12.882812 9.5664062 C 12.816513 9.6171062 12.740097 9.66805 12.654297 9.71875 C 12.568497 9.76555 12.478366 9.812575 12.384766 9.859375 C 12.291166 9.902275 12.197116 9.9375437 12.103516 9.9648438 L 11.992188 9.671875 C 12.226187 9.5899751 12.435841 9.4880812 12.619141 9.3632812 C 12.802441 9.2345813 12.984663 9.0601969 13.164062 8.8417969 z "
     id="path4" />
</svg>

<svg xmlns="http://www.w3.org/2000/svg" viewBox="0 0 16 16">
 <path d="m 1.6 0 c -0.886 0 -1.6 0.713 -1.6 1.6 l 0 12.801 c 0 0.886 0.713 1.6 1.6 1.6 l 12.801 0 c 0.886 0 1.6 -0.713 1.6 -1.6 l 0 -12.801 c 0 -0.886 -0.713 -1.6 -1.6 -1.6 l -12.801 0 z m 6.68 4.111 l 0 4.428 c 0.15 -0.144 0.318 -0.308 0.504 -0.494 c 0.186 -0.186 0.373 -0.374 0.559 -0.566 c 0.192 -0.192 0.371 -0.379 0.539 -0.559 c 0.168 -0.18 0.312 -0.339 0.432 -0.477 l 0.703 0 c -0.138 0.144 -0.295 0.306 -0.469 0.486 c -0.174 0.18 -0.357 0.368 -0.549 0.566 c -0.186 0.192 -0.373 0.38 -0.559 0.566 l -0.504 0.504 c 0.186 0.126 0.384 0.288 0.594 0.486 c 0.216 0.198 0.427 0.414 0.631 0.648 c 0.21 0.228 0.404 0.465 0.584 0.711 c 0.186 0.24 0.343 0.468 0.469 0.684 l -0.693 0 c -0.144 -0.24 -0.308 -0.473 -0.494 -0.701 c -0.18 -0.234 -0.372 -0.454 -0.576 -0.658 c -0.198 -0.204 -0.4 -0.389 -0.604 -0.557 c -0.198 -0.168 -0.386 -0.31 -0.566 -0.424 l 0 2.34 l -0.586 0 l 0 -6.875 l 0.586 -0.109 z m -3.533 0.613 c 0.168 0 0.332 0.011 0.494 0.035 c 0.162 0.024 0.313 0.058 0.451 0.1 c 0.144 0.036 0.273 0.077 0.387 0.125 c 0.12 0.048 0.219 0.1 0.297 0.154 l -0.217 0.512 c -0.174 -0.12 -0.387 -0.215 -0.639 -0.287 c -0.246 -0.072 -0.513 -0.107 -0.801 -0.107 c -0.198 0 -0.381 0.02 -0.549 0.063 c -0.162 0.036 -0.304 0.099 -0.424 0.189 c -0.12 0.084 -0.215 0.19 -0.287 0.322 c -0.066 0.132 -0.1 0.293 -0.1 0.479 c 0 0.192 0.035 0.354 0.107 0.486 c 0.072 0.132 0.173 0.246 0.299 0.342 c 0.132 0.096 0.285 0.182 0.459 0.26 c 0.174 0.078 0.362 0.16 0.566 0.244 c 0.246 0.102 0.477 0.203 0.693 0.305 c 0.222 0.102 0.414 0.223 0.576 0.361 c 0.162 0.138 0.291 0.306 0.387 0.504 c 0.096 0.198 0.143 0.441 0.143 0.729 c 0 0.564 -0.198 0.988 -0.594 1.27 c -0.39 0.282 -0.92 0.422 -1.592 0.422 c -0.24 0 -0.46 -0.015 -0.658 -0.045 c -0.198 -0.03 -0.375 -0.065 -0.531 -0.107 c -0.156 -0.048 -0.287 -0.097 -0.395 -0.145 c -0.108 -0.048 -0.192 -0.089 -0.252 -0.125 l 0.197 -0.531 c 0.06 0.036 0.14 0.077 0.242 0.125 c 0.102 0.048 0.223 0.097 0.361 0.145 c 0.138 0.042 0.293 0.077 0.467 0.107 c 0.174 0.03 0.366 0.045 0.576 0.045 c 0.486 0 0.865 -0.086 1.135 -0.26 c 0.27 -0.18 0.404 -0.469 0.404 -0.865 c 0 -0.228 -0.045 -0.416 -0.135 -0.566 c -0.084 -0.156 -0.198 -0.285 -0.342 -0.387 c -0.144 -0.108 -0.308 -0.198 -0.494 -0.27 c -0.186 -0.078 -0.382 -0.16 -0.586 -0.244 c -0.258 -0.102 -0.489 -0.206 -0.693 -0.314 c -0.204 -0.108 -0.377 -0.227 -0.521 -0.359 c -0.144 -0.138 -0.254 -0.295 -0.332 -0.469 c -0.072 -0.174 -0.109 -0.377 -0.109 -0.611 c 0 -0.534 0.177 -0.939 0.531 -1.215 c 0.354 -0.276 0.847 -0.414 1.477 -0.414 z m 8.418 4.117 l 0.268 0 l 0 4.055 l -0.379 0 l 0 -3.475 c -0.043 0.047 -0.1 0.094 -0.17 0.145 c -0.066 0.051 -0.143 0.102 -0.229 0.152 c -0.086 0.047 -0.176 0.094 -0.27 0.141 c -0.094 0.043 -0.188 0.078 -0.281 0.105 l -0.111 -0.293 c 0.234 -0.082 0.444 -0.184 0.627 -0.309 c 0.183 -0.129 0.366 -0.303 0.545 -0.521 z" style="fill:#353535;fill-opacity:1"/>
</svg>
